report_00007_2020-12-11T15:55:29.892Z/meta/score/samples/pages+cached+noexternal+nofonts+nosvg+noimg+nocss/raw/sorted.svg

<svg width="640" height="490" xmlns="http://www.w3.org/2000/svg" xmlns:xlink="http://www.w3.org/1999/xlink"><path fill="#fff" d="M0 0h640v490H0z"/><defs><path id="d" stroke-width=".222" stroke="currentColor" d="M-1-1h2v2h-2z"/><path id="b" stroke-width=".222" stroke="currentColor" d="M0-1.33l-1.33 2h2.66z"/><path id="f" stroke-width=".222" stroke="currentColor" d="M0 1.33L1.265.411.782-1.067l-1.564-.009-.483 1.487z"/><use xlink:href="#b" id="c" stroke="currentColor" transform="rotate(180)"/><use xlink:href="#d" id="e" stroke="currentColor" transform="rotate(45)"/><circle id="a" stroke-width=".222" stroke="currentColor" cx="0" cy="0" r="1"/></defs><g fill="none" color="#000" stroke="currentColor"><path stroke="#000" d="M70.5 410.6h9m535.5 0h-9"/><text transform="translate(62.2 414.5)" stroke="none" fill="#000" font-family="Arial" font-size="12" text-anchor="end"><tspan>0.92</tspan></text></g><g fill="none" color="#000" stroke="currentColor"><path stroke="#000" d="M70.5 368.1h9m535.5 0h-9"/><text transform="translate(62.2 372)" stroke="none" fill="#000" font-family="Arial" font-size="12" text-anchor="end"><tspan>0.922</tspan></text></g><g fill="none" color="#000" stroke="currentColor"><path stroke="#000" d="M70.5 325.7h9m535.5 0h-9"/><text transform="translate(62.2 329.6)" stroke="none" fill="#000" font-family="Arial" font-size="12" text-anchor="end"><tspan>0.924</tspan></text></g><g fill="none" color="#000" stroke="currentColor"><path stroke="#000" d="M70.5 283.2h9m535.5 0h-9"/><text transform="translate(62.2 287.1)" stroke="none" fill="#000" font-family="Arial" font-size="12" text-anchor="end"><tspan>0.926</tspan></text></g><g fill="none" color="#000" stroke="currentColor"><path stroke="#000" d="M70.5 240.7h9m535.5 0h-9"/><text transform="translate(62.2 244.6)" stroke="none" fill="#000" font-family="Arial" font-size="12" text-anchor="end"><tspan>0.928</tspan></text></g><g fill="none" color="#000" stroke="currentColor"><path stroke="#000" d="M70.5 198.3h9m535.5 0h-9"/><text transform="translate(62.2 202.2)" stroke="none" fill="#000" font-family="Arial" font-size="12" text-anchor="end"><tspan>0.93</tspan></text></g><g fill="none" color="#000" stroke="currentColor"><path stroke="#000" d="M70.5 155.8h9m535.5 0h-9"/><text transform="translate(62.2 159.7)" stroke="none" fill="#000" font-family="Arial" font-size="12" text-anchor="end"><tspan>0.932</tspan></text></g><g fill="none" color="#000" stroke="currentColor"><path stroke="#000" d="M70.5 113.4h9m535.5 0h-9"/><text transform="translate(62.2 117.3)" stroke="none" fill="#000" font-family="Arial" font-size="12" text-anchor="end"><tspan>0.934</tspan></text></g><g fill="none" color="#000" stroke="currentColor"><path stroke="#000" d="M70.5 70.9h9m535.5 0h-9"/><text transform="translate(62.2 74.8)" stroke="none" fill="#000" font-family="Arial" font-size="12" text-anchor="end"><tspan>0.936</tspan></text></g><g fill="none" color="#000" stroke="currentColor"><path stroke="#000" d="M70.5 28.4h9m535.5 0h-9"/><text transform="translate(62.2 32.3)" stroke="none" fill="#000" font-family="Arial" font-size="12" text-anchor="end"><tspan>0.938</tspan></text></g><g fill="none" color="#000" stroke="currentColor"><path stroke="#000" d="M70.5 436v-9m0-408.9v9"/><text transform="translate(70.5 457.9)" stroke="none" fill="#000" font-family="Arial" font-size="12" text-anchor="middle"><tspan>0</tspan></text></g><g fill="none" color="#000" stroke="currentColor"><path stroke="#000" d="M125.5 436v-9m0-408.9v9"/><text transform="translate(125.5 457.9)" stroke="none" fill="#000" font-family="Arial" font-size="12" text-anchor="middle"><tspan>10</tspan></text></g><g fill="none" color="#000" stroke="currentColor"><path stroke="#000" d="M180.5 436v-9m0-408.9v9"/><text transform="translate(180.5 457.9)" stroke="none" fill="#000" font-family="Arial" font-size="12" text-anchor="middle"><tspan>20</tspan></text></g><g fill="none" color="#000" stroke="currentColor"><path stroke="#000" d="M235.5 436v-9m0-408.9v9"/><text transform="translate(235.5 457.9)" stroke="none" fill="#000" font-family="Arial" font-size="12" text-anchor="middle"><tspan>30</tspan></text></g><g fill="none" color="#000" stroke="currentColor"><path stroke="#000" d="M290.5 436v-9m0-408.9v9"/><text transform="translate(290.5 457.9)" stroke="none" fill="#000" font-family="Arial" font-size="12" text-anchor="middle"><tspan>40</tspan></text></g><g fill="none" color="#000" stroke="currentColor"><path stroke="#000" d="M345.5 436v-9m0-408.9v9"/><text transform="translate(345.5 457.9)" stroke="none" fill="#000" font-family="Arial" font-size="12" text-anchor="middle"><tspan>50</tspan></text></g><g fill="none" color="#000" stroke="currentColor"><path stroke="#000" d="M400.5 436v-9m0-408.9v9"/><text transform="translate(400.5 457.9)" stroke="none" fill="#000" font-family="Arial" font-size="12" text-anchor="middle"><tspan>60</tspan></text></g><g fill="none" color="#000" stroke="currentColor"><path stroke="#000" d="M455.5 436v-9m0-408.9v9"/><text transform="translate(455.5 457.9)" stroke="none" fill="#000" font-family="Arial" font-size="12" text-anchor="middle"><tspan>70</tspan></text></g><g fill="none" color="#000" stroke="currentColor"><path stroke="#000" d="M510.5 436v-9m0-408.9v9"/><text transform="translate(510.5 457.9)" stroke="none" fill="#000" font-family="Arial" font-size="12" text-anchor="middle"><tspan>80</tspan></text></g><g fill="none" color="#000" stroke="currentColor"><path stroke="#000" d="M565.5 436v-9m0-408.9v9"/><text transform="translate(565.5 457.9)" stroke="none" fill="#000" font-family="Arial" font-size="12" text-anchor="middle"><tspan>90</tspan></text></g><path stroke="#000" d="M70.5 18.1V436H615V18.1H70.5z" fill="none" color="#000"/><text transform="translate(325.8 475.9)" stroke="none" fill="#000" font-family="Arial" font-size="12" text-anchor="end" color="#000"><tspan>raw</tspan></text><path stroke="#9400D3" d="M334.1 472h42.2M70.5 414.8l5.5-1.4 5.5-1.5 5.5-7.3 5.5-75.9 5.5-1.5 5.5-9.9 5.5-.3 5.5-3.1L120 76l5.5-5.8 5.5-.2 5.5-8 5.5-.5 5.5-.4 5.5-.7 5.5-2 5.5-.2 5.5-.1 5.5-.5h5.5l5.5-.1 5.5-.1 5.5-.1 5.5-.4 5.5-.6 5.5-.3 5.5-.2 5.5-.2 5.5-.6h5.5l5.5-.3 5.5-.3 5.5-.2 5.5-.3 5.5-.1 5.5-.1 5.5-.1h5.5l5.5-.6 5.5-.1 5.5-.1 5.5-.6h5.5l5.5-.2 5.5-.1 5.5-.5 5.5-.4 5.5-.3 5.5-.1 5.5-.4h5.5l5.5-.1 5.5-.1 5.5-.1 5.5-.1 5.5-.1 5.5-.3 5.5-.6h5.5l5.5-.1h5.5l5.5-.2 5.5-.1 5.5-.1h5.5l5.5-.2h5.5l5.5-.1 5.5-.1h5.5l5.5-.1 5.5-.1h5.5l5.5-.1 5.5-.3 5.5-.1 5.5-.1 5.5-.1 5.5-.3 5.5-.5 5.5-.3 5.5-.1h5.5l5.5-.2 5.5-.3 5.5-.4 5.5-.1 5.5-.1 5.5-.2 5.5-.4 5.5-.1 5.5-1 5.5-.1 5.5-.1h5.5l5.5-.2 5.5-2 5.5-.9 5.5-.4" fill="none" color="#000"/><g fill="none" color="#000" stroke="currentColor"><path stroke="#000" d="M70.5 18.1V436H615V18.1H70.5z"/></g></svg>

<?xml version="1.0" encoding="utf-8"  standalone="no"?>
<svg 
 width="640" height="490"
 viewBox="0 0 640 490"
 xmlns="http://www.w3.org/2000/svg"
 xmlns:xlink="http://www.w3.org/1999/xlink"
>

<title>Gnuplot</title>
<desc>Produced by GNUPLOT 5.4 patchlevel 0 </desc>

<g id="gnuplot_canvas">

<rect x="0" y="0" width="640" height="490" fill="#ffffff"/>
<defs>

	<circle id='gpDot' r='0.5' stroke-width='0.5' stroke='currentColor'/>
	<path id='gpPt0' stroke-width='0.222' stroke='currentColor' d='M-1,0 h2 M0,-1 v2'/>
	<path id='gpPt1' stroke-width='0.222' stroke='currentColor' d='M-1,-1 L1,1 M1,-1 L-1,1'/>
	<path id='gpPt2' stroke-width='0.222' stroke='currentColor' d='M-1,0 L1,0 M0,-1 L0,1 M-1,-1 L1,1 M-1,1 L1,-1'/>
	<rect id='gpPt3' stroke-width='0.222' stroke='currentColor' x='-1' y='-1' width='2' height='2'/>
	<rect id='gpPt4' stroke-width='0.222' stroke='currentColor' fill='currentColor' x='-1' y='-1' width='2' height='2'/>
	<circle id='gpPt5' stroke-width='0.222' stroke='currentColor' cx='0' cy='0' r='1'/>
	<use xlink:href='#gpPt5' id='gpPt6' fill='currentColor' stroke='none'/>
	<path id='gpPt7' stroke-width='0.222' stroke='currentColor' d='M0,-1.33 L-1.33,0.67 L1.33,0.67 z'/>
	<use xlink:href='#gpPt7' id='gpPt8' fill='currentColor' stroke='none'/>
	<use xlink:href='#gpPt7' id='gpPt9' stroke='currentColor' transform='rotate(180)'/>
	<use xlink:href='#gpPt9' id='gpPt10' fill='currentColor' stroke='none'/>
	<use xlink:href='#gpPt3' id='gpPt11' stroke='currentColor' transform='rotate(45)'/>
	<use xlink:href='#gpPt11' id='gpPt12' fill='currentColor' stroke='none'/>
	<path id='gpPt13' stroke-width='0.222' stroke='currentColor' d='M0,1.330 L1.265,0.411 L0.782,-1.067 L-0.782,-1.076 L-1.265,0.411 z'/>
	<use xlink:href='#gpPt13' id='gpPt14' fill='currentColor' stroke='none'/>
	<filter id='textbox' filterUnits='objectBoundingBox' x='0' y='0' height='1' width='1'>
	  <feFlood flood-color='#FFFFFF' flood-opacity='1' result='bgnd'/>
	  <feComposite in='SourceGraphic' in2='bgnd' operator='atop'/>
	</filter>
	<filter id='greybox' filterUnits='objectBoundingBox' x='0' y='0' height='1' width='1'>
	  <feFlood flood-color='lightgrey' flood-opacity='1' result='grey'/>
	  <feComposite in='SourceGraphic' in2='grey' operator='atop'/>
	</filter>
</defs>
<g fill="none" color="#FFFFFF" stroke="currentColor" stroke-width="1.00" stroke-linecap="butt" stroke-linejoin="miter">
</g>
<g fill="none" color="black" stroke="currentColor" stroke-width="1.00" stroke-linecap="butt" stroke-linejoin="miter">
	<path stroke='black'  d='M70.5,410.6 L79.5,410.6 M615.0,410.6 L606.0,410.6  '/>	<g transform="translate(62.2,414.5)" stroke="none" fill="black" font-family="Arial" font-size="12.00"  text-anchor="end">
		<text><tspan font-family="Arial" > 0.92</tspan></text>
	</g>
</g>
<g fill="none" color="black" stroke="currentColor" stroke-width="1.00" stroke-linecap="butt" stroke-linejoin="miter">
	<path stroke='black'  d='M70.5,368.1 L79.5,368.1 M615.0,368.1 L606.0,368.1  '/>	<g transform="translate(62.2,372.0)" stroke="none" fill="black" font-family="Arial" font-size="12.00"  text-anchor="end">
		<text><tspan font-family="Arial" > 0.922</tspan></text>
	</g>
</g>
<g fill="none" color="black" stroke="currentColor" stroke-width="1.00" stroke-linecap="butt" stroke-linejoin="miter">
	<path stroke='black'  d='M70.5,325.7 L79.5,325.7 M615.0,325.7 L606.0,325.7  '/>	<g transform="translate(62.2,329.6)" stroke="none" fill="black" font-family="Arial" font-size="12.00"  text-anchor="end">
		<text><tspan font-family="Arial" > 0.924</tspan></text>
	</g>
</g>
<g fill="none" color="black" stroke="currentColor" stroke-width="1.00" stroke-linecap="butt" stroke-linejoin="miter">
	<path stroke='black'  d='M70.5,283.2 L79.5,283.2 M615.0,283.2 L606.0,283.2  '/>	<g transform="translate(62.2,287.1)" stroke="none" fill="black" font-family="Arial" font-size="12.00"  text-anchor="end">
		<text><tspan font-family="Arial" > 0.926</tspan></text>
	</g>
</g>
<g fill="none" color="black" stroke="currentColor" stroke-width="1.00" stroke-linecap="butt" stroke-linejoin="miter">
	<path stroke='black'  d='M70.5,240.7 L79.5,240.7 M615.0,240.7 L606.0,240.7  '/>	<g transform="translate(62.2,244.6)" stroke="none" fill="black" font-family="Arial" font-size="12.00"  text-anchor="end">
		<text><tspan font-family="Arial" > 0.928</tspan></text>
	</g>
</g>
<g fill="none" color="black" stroke="currentColor" stroke-width="1.00" stroke-linecap="butt" stroke-linejoin="miter">
	<path stroke='black'  d='M70.5,198.3 L79.5,198.3 M615.0,198.3 L606.0,198.3  '/>	<g transform="translate(62.2,202.2)" stroke="none" fill="black" font-family="Arial" font-size="12.00"  text-anchor="end">
		<text><tspan font-family="Arial" > 0.93</tspan></text>
	</g>
</g>
<g fill="none" color="black" stroke="currentColor" stroke-width="1.00" stroke-linecap="butt" stroke-linejoin="miter">
	<path stroke='black'  d='M70.5,155.8 L79.5,155.8 M615.0,155.8 L606.0,155.8  '/>	<g transform="translate(62.2,159.7)" stroke="none" fill="black" font-family="Arial" font-size="12.00"  text-anchor="end">
		<text><tspan font-family="Arial" > 0.932</tspan></text>
	</g>
</g>
<g fill="none" color="black" stroke="currentColor" stroke-width="1.00" stroke-linecap="butt" stroke-linejoin="miter">
	<path stroke='black'  d='M70.5,113.4 L79.5,113.4 M615.0,113.4 L606.0,113.4  '/>	<g transform="translate(62.2,117.3)" stroke="none" fill="black" font-family="Arial" font-size="12.00"  text-anchor="end">
		<text><tspan font-family="Arial" > 0.934</tspan></text>
	</g>
</g>
<g fill="none" color="black" stroke="currentColor" stroke-width="1.00" stroke-linecap="butt" stroke-linejoin="miter">
	<path stroke='black'  d='M70.5,70.9 L79.5,70.9 M615.0,70.9 L606.0,70.9  '/>	<g transform="translate(62.2,74.8)" stroke="none" fill="black" font-family="Arial" font-size="12.00"  text-anchor="end">
		<text><tspan font-family="Arial" > 0.936</tspan></text>
	</g>
</g>
<g fill="none" color="black" stroke="currentColor" stroke-width="1.00" stroke-linecap="butt" stroke-linejoin="miter">
	<path stroke='black'  d='M70.5,28.4 L79.5,28.4 M615.0,28.4 L606.0,28.4  '/>	<g transform="translate(62.2,32.3)" stroke="none" fill="black" font-family="Arial" font-size="12.00"  text-anchor="end">
		<text><tspan font-family="Arial" > 0.938</tspan></text>
	</g>
</g>
<g fill="none" color="black" stroke="currentColor" stroke-width="1.00" stroke-linecap="butt" stroke-linejoin="miter">
	<path stroke='black'  d='M70.5,436.0 L70.5,427.0 M70.5,18.1 L70.5,27.1  '/>	<g transform="translate(70.5,457.9)" stroke="none" fill="black" font-family="Arial" font-size="12.00"  text-anchor="middle">
		<text><tspan font-family="Arial" > 0</tspan></text>
	</g>
</g>
<g fill="none" color="black" stroke="currentColor" stroke-width="1.00" stroke-linecap="butt" stroke-linejoin="miter">
	<path stroke='black'  d='M125.5,436.0 L125.5,427.0 M125.5,18.1 L125.5,27.1  '/>	<g transform="translate(125.5,457.9)" stroke="none" fill="black" font-family="Arial" font-size="12.00"  text-anchor="middle">
		<text><tspan font-family="Arial" > 10</tspan></text>
	</g>
</g>
<g fill="none" color="black" stroke="currentColor" stroke-width="1.00" stroke-linecap="butt" stroke-linejoin="miter">
	<path stroke='black'  d='M180.5,436.0 L180.5,427.0 M180.5,18.1 L180.5,27.1  '/>	<g transform="translate(180.5,457.9)" stroke="none" fill="black" font-family="Arial" font-size="12.00"  text-anchor="middle">
		<text><tspan font-family="Arial" > 20</tspan></text>
	</g>
</g>
<g fill="none" color="black" stroke="currentColor" stroke-width="1.00" stroke-linecap="butt" stroke-linejoin="miter">
	<path stroke='black'  d='M235.5,436.0 L235.5,427.0 M235.5,18.1 L235.5,27.1  '/>	<g transform="translate(235.5,457.9)" stroke="none" fill="black" font-family="Arial" font-size="12.00"  text-anchor="middle">
		<text><tspan font-family="Arial" > 30</tspan></text>
	</g>
</g>
<g fill="none" color="black" stroke="currentColor" stroke-width="1.00" stroke-linecap="butt" stroke-linejoin="miter">
	<path stroke='black'  d='M290.5,436.0 L290.5,427.0 M290.5,18.1 L290.5,27.1  '/>	<g transform="translate(290.5,457.9)" stroke="none" fill="black" font-family="Arial" font-size="12.00"  text-anchor="middle">
		<text><tspan font-family="Arial" > 40</tspan></text>
	</g>
</g>
<g fill="none" color="black" stroke="currentColor" stroke-width="1.00" stroke-linecap="butt" stroke-linejoin="miter">
	<path stroke='black'  d='M345.5,436.0 L345.5,427.0 M345.5,18.1 L345.5,27.1  '/>	<g transform="translate(345.5,457.9)" stroke="none" fill="black" font-family="Arial" font-size="12.00"  text-anchor="middle">
		<text><tspan font-family="Arial" > 50</tspan></text>
	</g>
</g>
<g fill="none" color="black" stroke="currentColor" stroke-width="1.00" stroke-linecap="butt" stroke-linejoin="miter">
	<path stroke='black'  d='M400.5,436.0 L400.5,427.0 M400.5,18.1 L400.5,27.1  '/>	<g transform="translate(400.5,457.9)" stroke="none" fill="black" font-family="Arial" font-size="12.00"  text-anchor="middle">
		<text><tspan font-family="Arial" > 60</tspan></text>
	</g>
</g>
<g fill="none" color="black" stroke="currentColor" stroke-width="1.00" stroke-linecap="butt" stroke-linejoin="miter">
	<path stroke='black'  d='M455.5,436.0 L455.5,427.0 M455.5,18.1 L455.5,27.1  '/>	<g transform="translate(455.5,457.9)" stroke="none" fill="black" font-family="Arial" font-size="12.00"  text-anchor="middle">
		<text><tspan font-family="Arial" > 70</tspan></text>
	</g>
</g>
<g fill="none" color="black" stroke="currentColor" stroke-width="1.00" stroke-linecap="butt" stroke-linejoin="miter">
	<path stroke='black'  d='M510.5,436.0 L510.5,427.0 M510.5,18.1 L510.5,27.1  '/>	<g transform="translate(510.5,457.9)" stroke="none" fill="black" font-family="Arial" font-size="12.00"  text-anchor="middle">
		<text><tspan font-family="Arial" > 80</tspan></text>
	</g>
</g>
<g fill="none" color="black" stroke="currentColor" stroke-width="1.00" stroke-linecap="butt" stroke-linejoin="miter">
	<path stroke='black'  d='M565.5,436.0 L565.5,427.0 M565.5,18.1 L565.5,27.1  '/>	<g transform="translate(565.5,457.9)" stroke="none" fill="black" font-family="Arial" font-size="12.00"  text-anchor="middle">
		<text><tspan font-family="Arial" > 90</tspan></text>
	</g>
</g>
<g fill="none" color="black" stroke="currentColor" stroke-width="1.00" stroke-linecap="butt" stroke-linejoin="miter">
</g>
<g fill="none" color="black" stroke="currentColor" stroke-width="1.00" stroke-linecap="butt" stroke-linejoin="miter">
	<path stroke='black'  d='M70.5,18.1 L70.5,436.0 L615.0,436.0 L615.0,18.1 L70.5,18.1 Z  '/></g>
<g fill="none" color="black" stroke="currentColor" stroke-width="1.00" stroke-linecap="butt" stroke-linejoin="miter">
</g>
	<g id="gnuplot_plot_1" ><title>raw</title>
<g fill="none" color="black" stroke="currentColor" stroke-width="1.00" stroke-linecap="butt" stroke-linejoin="miter">
	<g transform="translate(325.8,475.9)" stroke="none" fill="black" font-family="Arial" font-size="12.00"  text-anchor="end">
		<text><tspan font-family="Arial" >raw</tspan></text>
	</g>
</g>
<g fill="none" color="black" stroke="currentColor" stroke-width="1.00" stroke-linecap="butt" stroke-linejoin="miter">
	<path stroke='rgb(148,   0, 211)'  d='M334.1,472.0 L376.3,472.0 M70.5,414.8 L76.0,413.4 L81.5,411.9 L87.0,404.6 L92.5,328.7 L98.0,327.2
		L103.5,317.3 L109.0,317.0 L114.5,313.9 L120.0,76.0 L125.5,70.2 L131.0,70.0 L136.5,62.0 L142.0,61.5
		L147.5,61.1 L153.0,60.4 L158.5,58.4 L164.0,58.2 L169.5,58.1 L175.0,57.6 L180.5,57.6 L186.0,57.5
		L191.5,57.4 L197.0,57.3 L202.5,56.9 L208.0,56.3 L213.5,56.0 L219.0,55.8 L224.5,55.6 L230.0,55.0
		L235.5,55.0 L241.0,54.7 L246.5,54.4 L252.0,54.2 L257.5,53.9 L263.0,53.8 L268.5,53.7 L274.0,53.6
		L279.5,53.6 L285.0,53.0 L290.5,52.9 L296.0,52.8 L301.5,52.2 L307.0,52.2 L312.5,52.0 L318.0,51.9
		L323.5,51.4 L329.0,51.0 L334.5,50.7 L340.0,50.6 L345.5,50.2 L351.0,50.2 L356.5,50.1 L362.0,50.0
		L367.5,49.9 L373.0,49.8 L378.5,49.7 L384.0,49.4 L389.5,48.8 L395.0,48.8 L400.5,48.7 L406.0,48.7
		L411.5,48.5 L417.0,48.4 L422.5,48.3 L428.0,48.3 L433.5,48.1 L439.0,48.1 L444.5,48.0 L450.0,47.9
		L455.5,47.9 L461.0,47.8 L466.5,47.7 L472.0,47.7 L477.5,47.6 L483.0,47.3 L488.5,47.2 L494.0,47.1
		L499.5,47.0 L505.0,46.7 L510.5,46.2 L516.0,45.9 L521.5,45.8 L527.0,45.8 L532.5,45.6 L538.0,45.3
		L543.5,44.9 L549.0,44.8 L554.5,44.7 L560.0,44.5 L565.5,44.1 L571.0,44.0 L576.5,43.0 L582.0,42.9
		L587.5,42.8 L593.0,42.8 L598.5,42.6 L604.0,40.6 L609.5,39.7 L615.0,39.3  '/></g>
	</g>
<g fill="none" color="#FFFFFF" stroke="rgb(148,   0, 211)" stroke-width="2.00" stroke-linecap="butt" stroke-linejoin="miter">
</g>
<g fill="none" color="black" stroke="currentColor" stroke-width="2.00" stroke-linecap="butt" stroke-linejoin="miter">
</g>
<g fill="none" color="black" stroke="black" stroke-width="1.00" stroke-linecap="butt" stroke-linejoin="miter">
</g>
<g fill="none" color="black" stroke="currentColor" stroke-width="1.00" stroke-linecap="butt" stroke-linejoin="miter">
	<path stroke='black'  d='M70.5,18.1 L70.5,436.0 L615.0,436.0 L615.0,18.1 L70.5,18.1 Z  '/></g>
<g fill="none" color="black" stroke="currentColor" stroke-width="1.00" stroke-linecap="butt" stroke-linejoin="miter">
</g>
</g>
</svg>
